Newaita-dark/mimetypes/32/application-pgp-signature.svg

<?xml version="1.0" encoding="UTF-8"?>
<svg xmlns="http://www.w3.org/2000/svg" xmlns:xlink="http://www.w3.org/1999/xlink" width="32px" height="32px" viewBox="0 0 32 32" version="1.1">
<defs>
<linearGradient id="linear0" gradientUnits="userSpaceOnUse" x1="254" y1="233.5" x2="254" y2="254.666672" gradientTransform="matrix(0.062506,0,0,0.062506,0.66152,13.438785)">
<stop offset="0" style="stop-color:rgb(0%,0%,0%);stop-opacity:0.27451;"/>
<stop offset="1" style="stop-color:rgb(0%,0%,0%);stop-opacity:0;"/>
</linearGradient>
<radialGradient id="radial0" gradientUnits="userSpaceOnUse" cx="450.908936" cy="189.579361" fx="450.908936" fy="189.579361" r="21.166656" gradientTransform="matrix(0.00000017417,-0.0781325,-0.140638,-0.000000101539,49.484569,63.595333)">
<stop offset="0" style="stop-color:rgb(0%,0%,0%);stop-opacity:0.313726;"/>
<stop offset="0.222222" style="stop-color:rgb(0%,0%,0%);stop-opacity:0.27451;"/>
<stop offset="1" style="stop-color:rgb(0%,0%,0%);stop-opacity:0;"/>
</radialGradient>
<radialGradient id="radial1" gradientUnits="userSpaceOnUse" cx="450.908936" cy="189.579361" fx="450.908936" fy="189.579361" r="21.166656" gradientTransform="matrix(-0.00000017417,0.0781325,0.140638,0.000000101539,-18.393049,-7.527479)">
<stop offset="0" style="stop-color:rgb(0%,0%,0%);stop-opacity:0.313726;"/>
<stop offset="0.222222" style="stop-color:rgb(0%,0%,0%);stop-opacity:0.27451;"/>
<stop offset="1" style="stop-color:rgb(0%,0%,0%);stop-opacity:0;"/>
</radialGradient>
<radialGradient id="radial2" gradientUnits="userSpaceOnUse" cx="450.908936" cy="189.579361" fx="450.908936" fy="189.579361" r="21.166656" gradientTransform="matrix(-0.00000017417,-0.0781325,0.140638,-0.000000101539,-18.393049,63.595333)">
<stop offset="0" style="stop-color:rgb(0%,0%,0%);stop-opacity:0.313726;"/>
<stop offset="0.222222" style="stop-color:rgb(0%,0%,0%);stop-opacity:0.27451;"/>
<stop offset="1" style="stop-color:rgb(0%,0%,0%);stop-opacity:0;"/>
</radialGradient>
<radialGradient id="radial3" gradientUnits="userSpaceOnUse" cx="450.908936" cy="189.579361" fx="450.908936" fy="189.579361" r="21.166656" gradientTransform="matrix(0.00000017417,0.0781325,-0.140638,0.000000101539,49.484567,-7.527479)">
<stop offset="0" style="stop-color:rgb(0%,0%,0%);stop-opacity:0.313726;"/>
<stop offset="0.222222" style="stop-color:rgb(0%,0%,0%);stop-opacity:0.27451;"/>
<stop offset="1" style="stop-color:rgb(0%,0%,0%);stop-opacity:0;"/>
</radialGradient>
<linearGradient id="linear1" gradientUnits="userSpaceOnUse" x1="940" y1="1695.118164" x2="940" y2="175.118118" gradientTransform="matrix(0.016538,0,0,0.016538,0,0)">
<stop offset="0" style="stop-color:rgb(64.705884%,83.92157%,65.490198%);stop-opacity:1;"/>
<stop offset="1" style="stop-color:rgb(78.431374%,90.196079%,78.823531%);stop-opacity:1;"/>
</linearGradient>
<linearGradient id="linear2" gradientUnits="userSpaceOnUse" x1="249.189423" y1="233.5" x2="249.189423" y2="254.666687" gradientTransform="matrix(0.0298942,0,0,0.109385,15.042423,-16.360911)">
<stop offset="0" style="stop-color:rgb(0%,0%,0%);stop-opacity:0.27451;"/>
<stop offset="1" style="stop-color:rgb(0%,0%,0%);stop-opacity:0;"/>
</linearGradient>
<linearGradient id="linear3" gradientUnits="userSpaceOnUse" x1="338.666656" y1="233.5" x2="338.666656" y2="-168.666672" gradientTransform="matrix(0.062506,0,0,0.062506,0,13.438783)">
<stop offset="0" style="stop-color:rgb(40.000001%,73.333335%,41.568628%);stop-opacity:1;"/>
<stop offset="1" style="stop-color:rgb(50.588238%,78.039217%,51.764709%);stop-opacity:1;"/>
</linearGradient>
<linearGradient id="linear4" gradientUnits="userSpaceOnUse" x1="383.439697" y1="149.833054" x2="99.064934" y2="-134.541718" gradientTransform="matrix(1,0,0,1,0,-0.000000000000007105)">
<stop offset="0" style="stop-color:rgb(40.000001%,73.333335%,41.568628%);stop-opacity:1;"/>
<stop offset="1" style="stop-color:rgb(50.588238%,78.039217%,51.764709%);stop-opacity:1;"/>
</linearGradient>
<linearGradient id="linear5" gradientUnits="userSpaceOnUse" x1="383.439697" y1="149.833054" x2="99.064934" y2="-134.541718" gradientTransform="matrix(1,0.000000000000000056,-0.000000000000000056,1,-0.000000000000056843,0)">
<stop offset="0" style="stop-color:rgb(40.000001%,73.333335%,41.568628%);stop-opacity:1;"/>
<stop offset="1" style="stop-color:rgb(50.588238%,78.039217%,51.764709%);stop-opacity:1;"/>
</linearGradient>
</defs>
<g id="surface1">
<path style=" stroke:none;fill-rule:nonzero;fill:url(#linear0);" d="M 7.9375 28.035156 L 23.152344 28.035156 L 23.152344 29.355469 L 7.9375 29.355469 Z M 7.9375 28.035156 "/>
<path style=" stroke:none;fill-rule:nonzero;fill:url(#radial0);" d="M 23.152344 28.035156 L 25.800781 28.035156 L 25.800781 26.710938 L 23.152344 26.710938 Z M 23.152344 28.035156 "/>
<path style=" stroke:none;fill-rule:nonzero;fill:url(#radial1);" d="M 7.9375 28.035156 L 5.292969 28.035156 L 5.292969 29.355469 L 7.9375 29.355469 Z M 7.9375 28.035156 "/>
<path style=" stroke:none;fill-rule:nonzero;fill:url(#radial2);" d="M 7.9375 28.035156 L 5.292969 28.035156 L 5.292969 26.710938 L 7.9375 26.710938 Z M 7.9375 28.035156 "/>
<path style=" stroke:none;fill-rule:nonzero;fill:url(#radial3);" d="M 23.152344 28.035156 L 25.800781 28.035156 L 25.800781 29.355469 L 23.152344 29.355469 Z M 23.152344 28.035156 "/>
<path style=" stroke:none;fill-rule:nonzero;fill:url(#linear1);" d="M 18.542969 2.894531 L 6.613281 2.894531 C 5.882812 2.894531 5.292969 3.484375 5.292969 4.21875 L 5.292969 26.710938 C 5.292969 27.445312 5.882812 28.035156 6.613281 28.035156 L 24.476562 28.035156 C 25.210938 28.035156 25.800781 27.445312 25.800781 26.710938 L 25.800781 10.152344 Z M 18.542969 2.894531 "/>
<path style=" stroke:none;fill-rule:nonzero;fill:url(#linear2);" d="M 18.523438 9.179688 L 24.808594 9.179688 L 25.800781 10.171875 L 25.800781 11.496094 L 18.523438 11.496094 Z M 18.523438 9.179688 "/>
<path style=" stroke:none;fill-rule:nonzero;fill:rgb(0%,0%,0%);fill-opacity:0.235294;" d="M 5.292969 26.195312 L 5.292969 26.710938 C 5.292969 27.445312 5.882812 28.035156 6.613281 28.035156 L 24.476562 28.035156 C 25.210938 28.035156 25.800781 27.445312 25.800781 26.710938 L 25.800781 26.195312 C 25.800781 26.929688 25.210938 27.519531 24.476562 27.519531 L 6.613281 27.519531 C 5.882812 27.519531 5.292969 26.929688 5.292969 26.195312 Z M 5.292969 26.195312 "/>
<path style=" stroke:none;fill-rule:nonzero;fill:rgb(96.470588%,96.470588%,96.470588%);fill-opacity:0.588235;" d="M 6.613281 2.894531 C 5.882812 2.894531 5.292969 3.484375 5.292969 4.21875 L 5.292969 4.714844 C 5.292969 3.980469 5.882812 3.390625 6.613281 3.390625 L 18.542969 3.390625 L 25.800781 10.648438 L 25.800781 10.152344 L 18.542969 2.894531 Z M 6.613281 2.894531 "/>
<path style=" stroke:none;fill-rule:nonzero;fill:url(#linear3);" d="M 25.800781 10.152344 L 18.542969 2.894531 L 18.542969 8.832031 C 18.542969 9.5625 19.132812 10.152344 19.863281 10.152344 Z M 25.800781 10.152344 "/>
<path style=" stroke:none;fill-rule:nonzero;fill:rgb(0%,0%,0%);fill-opacity:0.235294;" d="M 18.542969 8.519531 L 18.542969 8.832031 C 18.542969 9.5625 19.132812 10.152344 19.863281 10.152344 L 25.800781 10.152344 L 25.488281 9.84375 L 19.863281 9.84375 C 19.132812 9.84375 18.542969 9.253906 18.542969 8.519531 Z M 18.542969 8.519531 "/>
<path style=" stroke:none;fill-rule:nonzero;fill:rgb(100%,100%,100%);fill-opacity:0.392157;" d="M 18.542969 2.894531 L 18.542969 3.390625 L 25.304688 10.152344 L 25.800781 10.152344 Z M 18.542969 2.894531 "/>
<path style=" stroke:none;fill-rule:nonzero;fill:rgb(12.941177%,12.941177%,12.941177%);fill-opacity:1;" d="M 18.539062 2.800781 C 18.488281 2.804688 18.449219 2.84375 18.449219 2.894531 L 18.449219 8.832031 C 18.449219 9.613281 19.082031 10.246094 19.863281 10.246094 L 25.800781 10.246094 C 25.835938 10.246094 25.871094 10.222656 25.886719 10.1875 C 25.902344 10.152344 25.890625 10.113281 25.867188 10.085938 L 18.609375 2.828125 C 18.589844 2.8125 18.566406 2.800781 18.539062 2.800781 Z M 18.636719 3.121094 L 25.574219 10.058594 L 19.863281 10.058594 C 19.183594 10.058594 18.636719 9.511719 18.636719 8.832031 Z M 18.636719 3.121094 "/>
<path style=" stroke:none;fill-rule:nonzero;fill:rgb(12.941177%,12.941177%,12.941177%);fill-opacity:1;" d="M 6.613281 2.800781 C 5.832031 2.800781 5.199219 3.4375 5.199219 4.21875 L 5.199219 26.710938 C 5.199219 27.496094 5.832031 28.128906 6.613281 28.128906 L 24.476562 28.128906 C 25.257812 28.128906 25.894531 27.496094 25.894531 26.710938 L 25.894531 10.152344 C 25.894531 10.128906 25.882812 10.105469 25.867188 10.085938 L 18.609375 2.828125 C 18.589844 2.8125 18.566406 2.800781 18.542969 2.800781 Z M 6.613281 2.988281 L 18.503906 2.988281 L 25.707031 10.191406 L 25.707031 26.710938 C 25.707031 27.394531 25.160156 27.941406 24.476562 27.941406 L 6.613281 27.941406 C 5.933594 27.941406 5.386719 27.394531 5.386719 26.710938 L 5.386719 4.21875 C 5.386719 3.535156 5.933594 2.988281 6.613281 2.988281 Z M 6.613281 2.988281 "/>
<path style="fill-rule:nonzero;fill:url(#linear4);stroke-width:3;stroke-linecap:round;stroke-linejoin:round;stroke:rgb(12.941177%,12.941177%,12.941177%);stroke-opacity:1;stroke-miterlimit:4;" d="M 232.792911 -68.124932 C 229.876374 -68.124932 227.534307 -65.782864 227.534307 -62.866327 L 227.534307 69.438395 L 269.868283 69.438395 L 269.868283 -62.866327 C 269.868283 -65.782864 267.526215 -68.124932 264.609678 -68.124932 Z M 232.792911 -68.124932 " transform="matrix(0.0441984,0.0441984,-0.0441984,0.0441984,5.551477,4.464127)"/>
<path style="fill-rule:nonzero;fill:url(#linear5);stroke-width:11.338583;stroke-linecap:round;stroke-linejoin:round;stroke:rgb(12.941177%,12.941177%,12.941177%);stroke-opacity:1;stroke-miterlimit:4;" d="M 859.972228 1135.168986 C 859.972228 1165.232074 890.035317 1215.003187 925.944005 1245.901361 C 933.626795 1253.58415 946.320099 1253.58415 954.169905 1245.734344 C 994.755074 1210.827758 1019.974665 1165.232074 1019.974665 1135.168986 Z M 859.972228 1135.168986 " transform="matrix(0.0116942,0.0116942,-0.0116942,0.0116942,15.054132,-5.038528)"/>
</g>
</svg>

<svg xmlns="http://www.w3.org/2000/svg" width="32pt" height="32pt" viewBox="0 0 32 32"><defs><linearGradient id="a" gradientUnits="userSpaceOnUse" x1="254" y1="233.5" x2="254" y2="254.667" gradientTransform="matrix(.0625 0 0 .0625 .662 13.439)"><stop offset="0" stop-opacity=".275"/><stop offset="1" stop-opacity="0"/></linearGradient><radialGradient id="b" gradientUnits="userSpaceOnUse" cx="450.909" cy="189.579" fx="450.909" fy="189.579" r="21.167" gradientTransform="matrix(0 -.07813 -.14064 0 49.485 63.595)"><stop offset="0" stop-opacity=".314"/><stop offset=".222" stop-opacity=".275"/><stop offset="1" stop-opacity="0"/></radialGradient><radialGradient id="c" gradientUnits="userSpaceOnUse" cx="450.909" cy="189.579" fx="450.909" fy="189.579" r="21.167" gradientTransform="matrix(0 .07813 .14064 0 -18.393 -7.527)"><stop offset="0" stop-opacity=".314"/><stop offset=".222" stop-opacity=".275"/><stop offset="1" stop-opacity="0"/></radialGradient><radialGradient id="d" gradientUnits="userSpaceOnUse" cx="450.909" cy="189.579" fx="450.909" fy="189.579" r="21.167" gradientTransform="matrix(0 -.07813 .14064 0 -18.393 63.595)"><stop offset="0" stop-opacity=".314"/><stop offset=".222" stop-opacity=".275"/><stop offset="1" stop-opacity="0"/></radialGradient><radialGradient id="e" gradientUnits="userSpaceOnUse" cx="450.909" cy="189.579" fx="450.909" fy="189.579" r="21.167" gradientTransform="matrix(0 .07813 -.14064 0 49.485 -7.527)"><stop offset="0" stop-opacity=".314"/><stop offset=".222" stop-opacity=".275"/><stop offset="1" stop-opacity="0"/></radialGradient><linearGradient id="f" gradientUnits="userSpaceOnUse" x1="940" y1="1695.118" x2="940" y2="175.118" gradientTransform="rotate(.891) scale(.01654)"><stop offset="0" stop-color="#a5d6a7"/><stop offset="1" stop-color="#c8e6c9"/></linearGradient><linearGradient id="g" gradientUnits="userSpaceOnUse" x1="249.189" y1="233.5" x2="249.189" y2="254.667" gradientTransform="matrix(.0299 0 0 .10938 15.042 -16.36)"><stop offset="0" stop-opacity=".275"/><stop offset="1" stop-opacity="0"/></linearGradient><linearGradient id="h" gradientUnits="userSpaceOnUse" x1="338.667" y1="233.5" x2="338.667" y2="-168.667" gradientTransform="matrix(.0625 0 0 .0625 0 13.439)"><stop offset="0" stop-color="#66bb6a"/><stop offset="1" stop-color="#81c784"/></linearGradient><linearGradient id="i" gradientUnits="userSpaceOnUse" x1="383.44" y1="149.833" x2="99.065" y2="-134.542"><stop offset="0" stop-color="#66bb6a"/><stop offset="1" stop-color="#81c784"/></linearGradient><linearGradient id="j" gradientUnits="userSpaceOnUse" x1="383.44" y1="149.833" x2="99.065" y2="-134.542"><stop offset="0" stop-color="#66bb6a"/><stop offset="1" stop-color="#81c784"/></linearGradient></defs><path d="M7.938 28.035h15.214v1.32H7.937zm0 0" fill="url(#a)"/><path d="M23.152 28.035h2.649v-1.324h-2.649zm0 0" fill="url(#b)"/><path d="M7.938 28.035H5.293v1.32h2.644zm0 0" fill="url(#c)"/><path d="M7.938 28.035H5.293v-1.324h2.644zm0 0" fill="url(#d)"/><path d="M23.152 28.035h2.649v1.32h-2.649zm0 0" fill="url(#e)"/><path d="M18.543 2.895H6.613c-.73 0-1.32.59-1.32 1.324V26.71c0 .734.59 1.324 1.32 1.324h17.864a1.32 1.32 0 0 0 1.324-1.324V10.152zm0 0" fill="url(#f)"/><path d="M18.523 9.18h6.286l.992.992v1.324h-7.278zm0 0" fill="url(#g)"/><path d="M5.293 26.195v.516c0 .734.59 1.324 1.32 1.324h17.864a1.32 1.32 0 0 0 1.324-1.324v-.516a1.32 1.32 0 0 1-1.324 1.325H6.613c-.73 0-1.32-.59-1.32-1.325zm0 0" fill-opacity=".235"/><path d="M6.613 2.895c-.73 0-1.32.59-1.32 1.324v.496c0-.735.59-1.324 1.32-1.324h11.93l7.258 7.257v-.496l-7.258-7.257zm0 0" fill="#f6f6f6" fill-opacity=".588"/><path d="M25.8 10.152l-7.257-7.257v5.937c0 .73.59 1.32 1.32 1.32zm0 0" fill="url(#h)"/><path d="M18.543 8.52v.312c0 .73.59 1.32 1.32 1.32h5.938l-.313-.308h-5.625c-.73 0-1.32-.59-1.32-1.324zm0 0" fill-opacity=".235"/><path d="M18.543 2.895v.496l6.762 6.761h.496zm0 0" fill="#fff" fill-opacity=".392"/><path d="M18.54 2.8a.094.094 0 0 0-.09.095v5.937c0 .781.632 1.414 1.413 1.414h5.938c.035 0 .07-.023.086-.059.015-.035.004-.074-.02-.101L18.61 2.828a.112.112 0 0 0-.07-.027zm.097.321l6.937 6.938h-5.71c-.68 0-1.227-.547-1.227-1.227zm0 0" fill="#212121"/><path d="M6.613 2.8C5.832 2.8 5.2 3.439 5.2 4.22V26.71c0 .785.633 1.418 1.414 1.418h17.864c.78 0 1.418-.633 1.418-1.418V10.152a.11.11 0 0 0-.028-.066L18.61 2.828a.11.11 0 0 0-.066-.027zm0 .188h11.89l7.204 7.203v16.52c0 .684-.547 1.23-1.23 1.23H6.613c-.68 0-1.226-.546-1.226-1.23V4.219c0-.684.547-1.23 1.226-1.23zm0 0" fill="#212121"/><path d="M232.793-68.125a5.243 5.243 0 0 0-5.259 5.259V69.438h42.334V-62.866a5.243 5.243 0 0 0-5.258-5.259zm0 0" transform="matrix(.0442 .0442 -.0442 .0442 5.551 4.464)" fill="url(#i)" stroke-width="3" stroke-linecap="round" stroke-linejoin="round" stroke="#212121"/><path d="M859.972 1135.169c0 30.063 30.063 79.834 65.972 110.732 7.683 7.683 20.376 7.683 28.226-.167 40.585-34.906 65.805-80.502 65.805-110.565zm0 0" transform="rotate(45.007 13.612 15.652) scale(.01654)" fill="url(#j)" stroke-width="11.339" stroke-linecap="round" stroke-linejoin="round" stroke="#212121"/></svg>
